X: 2044
M: 3/2
L: 1/8
K: Gm
zG |\
g2fef2 gac3d | e2A2f3 ee3d |\
d6- d4 :|
|: [M:3/4]\
g2a2b2 | f3ed2 |\
g3cf2 | c4B2 |\
b2f3g | a3ef2 |\
c3a=e2 | =e4d2 ::\
g3ab2 | a2g2a2 |
f4d2 | g3fe2 |\
d2c2g2 | B6 |\
f3ed2 | e2f2g2 |\
e4(dc) | f2g2a2 | b2a2b2 |[M:C|]\
^f6 d2 | B2G2 d2g2 |
f2 d4 ba | g2d2 e3f |\
c2 B4 :: f2 | f2ed c3d |\
e2 e4 f=e/f/ | g2c2 c3B |\
c2 c4 Bc | A2 F4 BA |
g2 g4 ae | f2 f4 dA |\


